X:1
T:All Through the Night
C:Traditional (Welsh)
M:4/4
L:1/4
Q:1/4=72
K:F
C | F F F G | A F A2 | G2 F G | A4 | F F F G | A F A2 | G2 F E | F4 | A A A B | c A c2 | B2 A B | c4 | A A A B | c A c2 | B2 A G | F4 |]
w: Sleep my | child and peace at-tend thee | all through the | night guard-ian | an-gels God will | send thee all | through the night | soft the | drow-sy hours are | cree-ping hill and | dale in slum-ber | steep-ing I my | lov-ing vig-il | keep-ing all through | the night all | through the night |
